!!!SOCIAL_FUNCTION:	war songs
!!!PDT:	1932
!!!OTL: No_122_War_Dance_Song.krn
!!!REG: Wisconsin
!!!LANG: Non-Tone
!!!LING_GROUP: Algonquin
**kern
*staff1
=1-
=
*clefF4
*k[f#]
*M2/4
4r
8r
16d\LL
16d\JJ
=2
8.d\L
16d\Jk
4B\
=3
[2d\
=4
4d\]
16B\
16r
16d\LL
16d\JJ
=5
8.d\L
16B\Jk
4B\
=6
[2B\
=7
8B\]
16r
16B\
4B\
=8
[2B\
=9
4B\]
8r
16d\LL
16d\JJ
=10
8.d\L
16B\Jk
4B\
=11||
*M3/4
[2B\
8B\L]
16A\L
16B\JJ
=12||
*M3/8
8.G\L
16E\K
8E\J
=13||
*M2/4
4D\
4D\
=14
4D\
16BB/
16r
16D\LL
16D\JJ
=15||
*M3/8
8.D/L
16BB/K
8BB/J
=16||
*M2/4
4D\
4D\
=17
4D\
16BB/
16r
16D\LL
16D\JJ
=18||
*M3/8
8.D/L
16BB/K
8BB/J
=19||
*M2/4
4BB/
4BB/
=20
4BB/
8.BB/L
16BB/Jk
=21
4BB/
4r
=22:|!
*M3/4
4d\
16B\LK
8B\
16B\Jk
8B\L
16A\Jk
16r
=23||
*M2/4
4B\
8B\L
16A\L
16A\JJ
=24
8G\L
[8E\J
4E\]
=25
4G\
16E\LK
8E\
16D\Jk
=26||
*M3/4
8D\L
8D\J
8D\L
8D\J
16D\
16r
16D\LL
16D\JJ
=27
*M3/8
4D\
8BB/
=28||
*M2/4
4D\
4D\
=29
4D\
16BB/
16r
16D\LL
16D\JJ
=30||
*M3/8
4D\
8BB/
=31||
*M2/4
4BB/
4BB/
=32
2BB/
==
*-
